assets/icons/qvision/no_meals_ouline.svg

<svg width="24" height="24" viewBox="0 0 24 24" fill="none" xmlns="http://www.w3.org/2000/svg">
<g clip-path="url(#clip0_147_5549)">
<path d="M15.9999 14V6C15.9999 4.24 18.2399 2 20.9999 2V18.17L18.9999 16.17V14H15.9999ZM20.4899 23.31L10.0199 12.85C9.68994 12.94 9.35994 13 8.99994 13V22H6.99994V13C4.78994 13 2.99994 11.21 2.99994 9V5.83L0.689941 3.51L2.09994 2.1L21.8999 21.9L20.4899 23.31ZM6.16994 9L4.99994 7.83V9H6.16994ZM8.99994 2H6.99994V4.17L8.99994 6.17V2ZM12.9999 9V2H10.9999V8.17L12.8499 10.02C12.9399 9.69 12.9999 9.36 12.9999 9Z" fill="#323232"/>
</g>
<defs>
<clipPath id="clip0_147_5549">
<rect width="24" height="24" fill="white"/>
</clipPath>
</defs>
</svg>

<svg xmlns="http://www.w3.org/2000/svg" enable-background="new 0 0 24 24" height="24" viewBox="0 0 24 24" width="24"><rect fill="none" height="24" width="24"/><path d="M16,14V6c0-1.76,2.24-4,5-4v16.17l-2-2V14H16z M20.49,23.31L10.02,12.85C9.69,12.94,9.36,13,9,13v9H7v-9c-2.21,0-4-1.79-4-4 V5.83L0.69,3.51L2.1,2.1l19.8,19.8L20.49,23.31z M6.17,9L5,7.83V9H6.17z M9,2H7v2.17l2,2V2z M13,9V2h-2v6.17l1.85,1.85 C12.94,9.69,13,9.36,13,9z"/></svg>
